svgs/ebay.svg

<svg id="Layer_1" data-name="Layer 1" xmlns="http://www.w3.org/2000/svg" viewBox="0 0 24 24">
  <g>
    <path d="M9.88732,9.74648c-1.4554,0-1.831.75117-1.831.75117V8.00939H7.02347v3.80282A2.12571,2.12571,0,0,0,4.58216,9.74648C3.17371,9.74648,2,10.30986,2,12.14085c0,1.45539.79812,2.30046,2.62911,2.30046,2.15962,0,2.30047-1.40845,2.30047-1.40845H5.84977a1.21528,1.21528,0,0,1-1.31456.79813,1.41789,1.41789,0,0,1-1.50235-1.4554H7.02347v1.22065l-.04694.75118H8.00939l.047-.65728a2.06331,2.06331,0,0,0,1.831.79812,2.25508,2.25508,0,0,0,2.34742-2.39436A2.21668,2.21668,0,0,0,9.88732,9.74648ZM3.03286,11.71831a1.38687,1.38687,0,0,1,1.50235-1.31455,1.28347,1.28347,0,0,1,1.40845,1.31455ZM9.60563,13.784a1.52588,1.52588,0,0,1-1.54929-1.64319A1.53711,1.53711,0,0,1,9.60563,10.4507a1.504,1.504,0,0,1,1.5493,1.6432A1.57076,1.57076,0,0,1,9.60563,13.784Z"/>
    <path d="M20.92019,9.93427,19.23,13.31455,17.493,9.93427H16.31925l.19433.36153A2.522,2.522,0,0,0,14.723,9.74648c-2.15962,0-2.25352,1.17371-2.25352,1.31455h1.03287s.09389-.65727,1.12676-.65727c1.4554,0,1.2676,1.12676,1.2676,1.12676h-1.2676c-1.64319,0-2.48826.51643-2.48826,1.4554s.79812,1.50234,1.87793,1.50234c1.50235,0,1.92488-.79812,1.92488-.79812l.047.65728h.939v-2.9108a2.03962,2.03962,0,0,0-.05074-.46154l1.78783,3.32539-.84507,1.69014h1.12676L22,9.93427ZM14.25352,13.831c-.75117,0-1.07981-.37559-1.07981-.84507,0-.79813,1.12676-.79813,2.723-.79813A1.47266,1.47266,0,0,1,14.25352,13.831Z"/>
  </g>
</svg>

<svg xmlns="http://www.w3.org/2000/svg" data-name="Layer 1" viewBox="0 0 24 24"><path d="M9.887 9.746c-1.455 0-1.83.752-1.83.752V8.009H7.022v3.803a2.126 2.126 0 0 0-2.44-2.066C3.172 9.746 2 10.31 2 12.141c0 1.455.798 2.3 2.63 2.3 2.159 0 2.3-1.408 2.3-1.408H5.85a1.215 1.215 0 0 1-1.315.798 1.418 1.418 0 0 1-1.502-1.455h3.99v1.22l-.046.751h1.032l.047-.657a2.063 2.063 0 0 0 1.831.798 2.255 2.255 0 0 0 2.348-2.394 2.217 2.217 0 0 0-2.348-2.348m-6.854 1.972a1.387 1.387 0 0 1 1.502-1.314 1.283 1.283 0 0 1 1.409 1.314Zm6.573 2.066a1.526 1.526 0 0 1-1.55-1.643 1.537 1.537 0 0 1 1.55-1.69 1.504 1.504 0 0 1 1.549 1.643 1.57 1.57 0 0 1-1.55 1.69"/><path d="m20.92 9.934-1.69 3.38-1.737-3.38h-1.174l.195.362a2.522 2.522 0 0 0-1.791-.55c-2.16 0-2.254 1.174-2.254 1.315h1.033s.094-.657 1.127-.657c1.456 0 1.268 1.127 1.268 1.127h-1.268c-1.643 0-2.488.516-2.488 1.455s.798 1.502 1.878 1.502c1.502 0 1.925-.798 1.925-.798l.047.657h.939v-2.91a2.04 2.04 0 0 0-.051-.462l1.788 3.325-.845 1.69h1.126L22 9.935Zm-6.666 3.897c-.752 0-1.08-.376-1.08-.845 0-.798 1.126-.798 2.723-.798a1.473 1.473 0 0 1-1.643 1.643"/></svg>
